X:1
T:Morgenglanz der Ewigkeit, 78.78.73
T:Morgenglanz der Ewigkeit, 78.78.73
T:Johann Rudolf Ahle, 1662
T:Public Domain Courtesy of the Cyber Hymnal™
C:Johann Rudolf Ahle, 1662
Z:Public Domain
Z:Courtesy of the Cyber Hymnal™
%%score ( 1 2 ) ( 3 4 )
L:1/8
Q:1/4=113
M:none
K:D
V:1 treble 
V:2 treble 
V:3 bass 
V:4 bass 
V:1
|: [DF]2 (ED) [DA]2 [DB]2 | A3 z [DF]4 | [Fd]2 [Ec]2 [EB]2 [Ec]2 [Dd]2 c2 | B4 [CA]4 :| %4
 [EA]2 [DA]2 [DB]2 [DA]2 | G2 [DF]2 [CE]4 | [DF]4 E4 | [A,D]8 |] %8
V:2
|: x2 A,2 x4 | E2 (C2 G) x3 | x12 | (F2 E2) x4 :| x8 | (B,C) x6 | x4 (D2 C2) | x8 |] %8
V:3
|: [D,A,]2 (G,F,) [D,F,]2 [B,,F,]2 | [C,E,]2 [A,,A,]2 [D,A,]4 | %2
 [D,A,]2 [A,,A,]2 [E,^G,]2 [A,,A,]2 [B,,F,]2 [C,A,]2 | (A,2 ^G,2) [A,,A,]4 :| %4
 [C,A,]2 [D,F,]2 [G,,G,]2 [D,F,]2 | [E,G,]2 A,2 A,4 | [D,A,]4 [A,,A,]4 | [D,F,]8 |] %8
V:4
|: x2 D,2 x4 | x8 | x12 | E,4 x4 :| x8 | x2 (F,G,) x4 | x8 | x8 |] %8

